public/assets/olderWoman.svg

<svg width="354" height="491" fill="none" xmlns="http://www.w3.org/2000/svg"><path opacity=".747" fill-rule="evenodd" clip-rule="evenodd" d="m157.114 459.223-2.566-1.26c-41.98-20.728-87.415-48.236-113.723-93.272C14.47 319.555 7.24 256.887 3.056 199.298l-.252-3.519C-1.393 137.132-2.76 84.252 12.463 49.84 27.629 15.454 59.384-.465 98.323.01c38.937.475 85.106 17.447 124.543 59.187 39.492 41.714 72.254 108.195 96.456 175.876 24.202 67.68 39.855 136.431 31.398 182.116-8.563 45.609-41.228 68.025-76.844 72.329-35.561 4.28-74.127-9.526-116.762-30.295Z" fill="#CEE5D0" fill-opacity=".5"/><path fill-rule="evenodd" clip-rule="evenodd" d="M292.785 292.035c-6.284 29.707-27.815 90.828-75.106 85.131-48.921-5.901-84.227-37.972-89.169-91.176-14.222 2.258-17.577-34.69-13.616-46.559 3.964-11.887 16.905-4.935 16.905-4.935l-.201 3.223a220.075 220.075 0 0 1 2.028-9.124c21.371-87.404 81.228-83.938 81.228-83.938 109.985 5.715 84.212 117.677 77.931 147.378Z" fill="#57331F"/><path fill-rule="evenodd" clip-rule="evenodd" d="M305.531 265.747c0-14.415-3.213-32.668 5.433-39.875 8.646-7.208 27.378-19.461 16.571-34.599-10.807-15.136 1.441-44.689-17.291-48.292-18.733-3.604-19.523-9.534-24.567-23.23-5.042-13.695-26.463-2.868-35.258-9.782-8.297-6.52-18.216-17.761-41.185-6.224-12.369 6.213-33.481-17.933-48.852 16.171-9.857 21.872-20.287 2.718-34.551 14.082-16.956 13.507-.456 33.25-15.586 43.34-15.13 10.091-1.953 21.662-7.397 33.034-8.98 18.763 6.38 84.695 16.466 90.461 10.088 5.767 15.305 15.471 15.305 15.471s-4.652-15.805-5.798-30.222c0 0-7.797 1.946-12.052-11.985s-5.767-37.673 3.44-40.348c9.207-2.673 10.928 4.816 10.928 4.816s3.023 11.477 1.273 20.23c-1.751 8.755 3.937 14.008 7 .876s18.376-13.569 15.313-31.515c-3.063-17.946 3.063-28.451 15.314-33.703 12.25-5.252 15.751-31.953 26.25-29.327 10.502 2.627 22.314-8.754 38.503-.875 16.188 7.879 14.875 18.822 28.877 21.447 14 2.627 21.437 11.381 21.437 18.822 0 7.441 9.626 10.067 12.251 20.572 2.625 10.505.325 41.653-5.167 67.807 0 0 13.343-12.736 13.343-27.152Z" fill="#A29483"/><path fill-rule="evenodd" clip-rule="evenodd" d="M205.955 322.788s8.888 21.141 27.428 13.101l-27.428-13.101ZM175.946 257.874s8.785-10.543 16.718-14.991c4.899-2.745 35.134-8.622 36.239-2.408 1.077 6.055-2.033 6.264-14.087 8.233-12.055 1.968-17.703 2.455-24.037 5.44-6.336 2.986-13.492 7.053-14.833 3.726ZM292.569 265.294s1.113-6.393-.42-10.567c-1.534-4.173-20.516-21.543-26.086-20.031-8.849 2.402-5.66 6.654 5.542 14.21 9.008 6.077 12.6 8.416 15.998 12.698 4.643 5.849 4.295 4.633 4.966 3.69Z" fill="#000"/><path d="m249.941 248.883 2.928.942-.286.92a213.189 213.189 0 0 0-3.082 11.215 158.505 158.505 0 0 0-2.072 9.65l-.159.907c-1.336 7.789-1.524 13.737-.331 16.935l.07.182c6.824 16.931-2.442 25.517-21.892 19.505l-.593-.187.937-2.937c17.521 5.623 24.547-.712 18.697-15.226-1.61-3.995-1.362-10.774.245-19.725a161.593 161.593 0 0 1 2.112-9.84 217.452 217.452 0 0 1 2.085-7.853l.267-.928c.161-.552.314-1.074.461-1.563l.375-1.236.238-.761ZM174.034 366.844l1.504-2.688.549.299.504.269c.762.402 1.63.846 2.595 1.322l.419.206a136.793 136.793 0 0 0 10.659 4.65c8.8 3.403 17.494 5.726 25.584 6.479 3.665.342 7.14.35 10.393 0l.648-.075.376 3.061c-3.671.453-7.582.468-11.702.085-8.407-.784-17.363-3.176-26.405-6.673a139.798 139.798 0 0 1-10.9-4.755l-1.255-.622a97.866 97.866 0 0 1-1.501-.77l-.87-.461-.598-.327Z" fill="#000"/><path fill-rule="evenodd" clip-rule="evenodd" d="M215.119 269.399a2.288 2.288 0 0 1-1.558-.609c-.03-.026-3.832-3.412-9.321-3.207-5.679.21-9.45 2.997-9.487 3.025a2.31 2.31 0 0 1-2.792-3.681c.197-.151 4.902-3.699 12.108-3.966 7.417-.268 12.401 4.23 12.609 4.421a2.316 2.316 0 0 1 .14 3.268 2.295 2.295 0 0 1-1.699.749ZM279.775 276.448a2.296 2.296 0 0 1-1.558-.609c-.029-.027-3.832-3.417-9.321-3.207-5.665.209-9.442 2.99-9.478 3.018a2.302 2.302 0 0 1-3.233-.433 2.317 2.317 0 0 1 .431-3.241c.197-.151 4.904-3.7 12.11-3.967 7.413-.266 12.4 4.23 12.608 4.422a2.315 2.315 0 0 1-1.559 4.017Z" fill="#000"/><path fill-rule="evenodd" clip-rule="evenodd" d="M135.977 285.078c0 4.455-3.617 8.066-8.08 8.066-4.462 0-8.08-3.611-8.08-8.066 0-4.456 3.618-8.067 8.08-8.067 4.463 0 8.08 3.611 8.08 8.067Z" fill="#B86767"/></svg>

<svg width="354" height="491" viewBox="0 0 354 491" fill="none" xmlns="http://www.w3.org/2000/svg">
<g opacity="0.74707">
<g opacity="0.74707">
<path opacity="0.74707" fill-rule="evenodd" clip-rule="evenodd" d="M157.114 459.223L154.548 457.963C112.568 437.235 67.1335 409.727 40.8251 364.691C14.4692 319.555 7.23931 256.887 3.05629 199.298L2.8039 195.779C-1.39329 137.132 -2.75968 84.252 12.4626 49.84C27.629 15.4538 59.3844 -0.464654 98.3224 0.0103147C137.26 0.485285 183.429 17.4575 222.866 59.1973C262.358 100.911 295.12 167.392 319.322 235.073C343.524 302.753 359.177 371.504 350.72 417.189C342.157 462.798 309.492 485.214 273.876 489.518C238.315 493.798 199.749 479.992 157.114 459.223Z" fill="#CEE5D0" fill-opacity="0.5"/>
</g>
</g>
<path fill-rule="evenodd" clip-rule="evenodd" d="M292.785 292.035C286.501 321.742 264.97 382.863 217.679 377.166C168.758 371.265 133.452 339.194 128.51 285.99C114.288 288.248 110.933 251.3 114.894 239.431C118.858 227.544 131.799 234.496 131.799 234.496L131.598 237.719C132.197 234.72 132.873 231.677 133.626 228.595C154.997 141.191 214.854 144.657 214.854 144.657C324.839 150.372 299.066 262.334 292.785 292.035Z" fill="#57331F"/>
<path fill-rule="evenodd" clip-rule="evenodd" d="M305.531 265.747C305.531 251.332 302.318 233.079 310.964 225.872C319.61 218.664 338.342 206.411 327.535 191.273C316.728 176.137 328.976 146.584 310.244 142.981C291.511 139.377 290.721 133.447 285.677 119.751C280.635 106.056 259.214 116.883 250.419 109.969C242.122 103.449 232.203 92.2076 209.234 103.745C196.865 109.958 175.753 85.8119 160.382 119.916C150.525 141.788 140.095 122.634 125.831 133.998C108.875 147.505 125.375 167.248 110.245 177.338C95.1148 187.429 108.292 199 102.848 210.372C93.8674 229.135 109.228 295.067 119.314 300.833C129.402 306.6 134.619 316.304 134.619 316.304C134.619 316.304 129.967 300.499 128.821 286.082C128.821 286.082 121.024 288.028 116.769 274.097C112.514 260.166 111.002 236.424 120.209 233.749C129.416 231.076 131.137 238.565 131.137 238.565C131.137 238.565 134.16 250.042 132.41 258.795C130.659 267.55 136.347 272.803 139.41 259.671C142.473 246.539 157.786 246.102 154.723 228.156C151.66 210.21 157.786 199.705 170.037 194.453C182.287 189.201 185.788 162.5 196.287 165.126C206.789 167.753 218.601 156.372 234.79 164.251C250.978 172.13 249.665 183.073 263.667 185.698C277.667 188.325 285.104 197.079 285.104 204.52C285.104 211.961 294.73 214.587 297.355 225.092C299.98 235.597 297.68 266.745 292.188 292.899C292.188 292.899 305.531 280.163 305.531 265.747Z" fill="#A29483"/>
<path fill-rule="evenodd" clip-rule="evenodd" d="M205.955 322.788C205.955 322.788 214.843 343.929 233.383 335.889L205.955 322.788Z" fill="black"/>
<path fill-rule="evenodd" clip-rule="evenodd" d="M175.946 257.874C175.946 257.874 184.731 247.331 192.664 242.883C197.563 240.138 227.798 234.261 228.903 240.475C229.98 246.53 226.87 246.739 214.816 248.708C202.761 250.676 197.113 251.163 190.779 254.148C184.443 257.134 177.287 261.201 175.946 257.874Z" fill="black"/>
<path fill-rule="evenodd" clip-rule="evenodd" d="M292.569 265.294C292.569 265.294 293.682 258.901 292.149 254.727C290.615 250.554 271.633 233.184 266.063 234.696C257.214 237.098 260.403 241.35 271.605 248.906C280.613 254.983 284.205 257.322 287.603 261.604C292.246 267.453 291.898 266.237 292.569 265.294Z" fill="black"/>
<path d="M249.941 248.883L252.869 249.825L252.583 250.745C252.352 251.495 252.096 252.354 251.819 253.306C251.029 256.028 250.238 258.951 249.501 261.96C248.681 265.304 247.979 268.548 247.429 271.61L247.27 272.517C245.934 280.306 245.746 286.254 246.939 289.452L247.009 289.634C253.833 306.565 244.567 315.151 225.117 309.139L224.524 308.952L225.461 306.015C242.982 311.638 250.008 305.303 244.158 290.789C242.548 286.794 242.796 280.015 244.403 271.064C244.965 267.933 245.681 264.627 246.515 261.224C247.181 258.509 247.888 255.865 248.6 253.371L248.867 252.443C249.028 251.891 249.181 251.369 249.328 250.88L249.703 249.644L249.941 248.883Z" fill="black"/>
<path d="M174.034 366.844L175.538 364.156L176.087 364.455L176.591 364.724C177.353 365.126 178.221 365.57 179.186 366.046L179.605 366.252C182.849 367.837 186.437 369.422 190.264 370.902C199.064 374.305 207.758 376.628 215.848 377.381C219.513 377.723 222.988 377.731 226.241 377.381L226.889 377.306L227.265 380.367C223.594 380.82 219.683 380.835 215.563 380.452C207.156 379.668 198.2 377.276 189.158 373.779C185.245 372.266 181.578 370.646 178.258 369.024L177.003 368.402C176.469 368.133 175.968 367.877 175.502 367.632L174.632 367.171L174.034 366.844Z" fill="black"/>
<path fill-rule="evenodd" clip-rule="evenodd" d="M215.119 269.399C214.561 269.399 214.003 269.198 213.561 268.79C213.531 268.764 209.729 265.378 204.24 265.583C198.561 265.793 194.79 268.58 194.753 268.608C193.737 269.371 192.292 269.171 191.528 268.156C190.761 267.141 190.953 265.7 191.961 264.927C192.158 264.776 196.863 261.228 204.069 260.961C211.486 260.693 216.47 265.191 216.678 265.382C217.617 266.246 217.68 267.709 216.818 268.65C216.364 269.147 215.742 269.399 215.119 269.399Z" fill="black"/>
<path fill-rule="evenodd" clip-rule="evenodd" d="M279.775 276.448C279.218 276.448 278.66 276.246 278.217 275.839C278.188 275.812 274.385 272.422 268.896 272.632C263.231 272.841 259.454 275.622 259.418 275.65C258.406 276.426 256.958 276.232 256.185 275.217C255.412 274.203 255.605 272.751 256.616 271.976C256.813 271.825 261.52 268.276 268.726 268.009C276.139 267.743 281.126 272.239 281.334 272.431C282.273 273.295 282.336 274.758 281.474 275.698C281.02 276.196 280.398 276.448 279.775 276.448Z" fill="black"/>
<path fill-rule="evenodd" clip-rule="evenodd" d="M135.977 285.078C135.977 289.533 132.36 293.144 127.897 293.144C123.435 293.144 119.817 289.533 119.817 285.078C119.817 280.622 123.435 277.011 127.897 277.011C132.36 277.011 135.977 280.622 135.977 285.078Z" fill="#B86767"/>
</svg>
